X: 4
T: The Plains Of Boyle
R: hornpipe
M: 4/4
L: 1/8
K: Dmaj
|: AFDE FEDF | (3ABA GB AFD(f | f)edf edce | dcAB =cAGB |
AFDE FEDF | (3ABA GB AFDf | gedc ABAG | F2D2 D2 FG :||
|: afdf g2 fe | dfed BAFA | (3ABA FA BAFA |(3ABA FA defg |
afdf g2 fe | dfed BAFA | A2 AF GBAG | (3FGA EA D2 fg |
afdf g2 fe | dfed BAFA | (3ABA fA gAfA |(3ABA fA defg |
afdf g2 fe | dfed BAFA | A2 AF GBAG | (3FGA EA D2 FG||


Tune 652	Setting 13684

